assets/icons/emote/sick-filled.svg

<?xml version="1.0" encoding="UTF-8" standalone="no"?>
<svg
   viewBox="0 0 24 24"
   width="24"
   height="24"
   version="1.1"
   id="svg837"
   sodipodi:docname="sick-filled.svg"
   inkscape:version="1.2 (1:1.2.1+202207142221+cd75a1ee6d)"
   xmlns:inkscape="http://www.inkscape.org/namespaces/inkscape"
   xmlns:sodipodi="http://sodipodi.sourceforge.net/DTD/sodipodi-0.dtd"
   xmlns="http://www.w3.org/2000/svg"
   xmlns:svg="http://www.w3.org/2000/svg"
   xmlns:rdf="http://www.w3.org/1999/02/22-rdf-syntax-ns#"
   xmlns:cc="http://creativecommons.org/ns#"
   xmlns:dc="http://purl.org/dc/elements/1.1/">
  <metadata
     id="metadata843">
    <rdf:RDF>
      <cc:Work
         rdf:about="">
        <dc:format>image/svg+xml</dc:format>
        <dc:type
           rdf:resource="http://purl.org/dc/dcmitype/StillImage" />
      </cc:Work>
    </rdf:RDF>
  </metadata>
  <defs
     id="defs841" />
  <sodipodi:namedview
     pagecolor="#ffffff"
     bordercolor="#666666"
     borderopacity="1"
     objecttolerance="10"
     gridtolerance="10"
     guidetolerance="10"
     inkscape:pageopacity="0"
     inkscape:pageshadow="2"
     inkscape:window-width="1920"
     inkscape:window-height="1016"
     id="namedview839"
     showgrid="true"
     inkscape:zoom="27.5"
     inkscape:cx="7.7090909"
     inkscape:cy="5.7636364"
     inkscape:window-x="0"
     inkscape:window-y="0"
     inkscape:window-maximized="1"
     inkscape:current-layer="svg837"
     inkscape:pagecheckerboard="0"
     inkscape:showpageshadow="2"
     inkscape:deskcolor="#d1d1d1">
    <inkscape:grid
       type="xygrid"
       id="grid2015" />
  </sodipodi:namedview>
  <path
     id="path993"
     style="fill:#808080;fill-opacity:1;fill-rule:evenodd;stroke:none;stroke-width:0.75;stroke-linecap:square;stroke-linejoin:round;stroke-opacity:1"
     d="M 11.953125 2.625 A 9.3749993 9.3749993 0 0 0 2.625 12 A 9.3749993 9.3749993 0 0 0 12 21.375 A 9.3749993 9.3749993 0 0 0 21.375 12 A 9.3749993 9.3749993 0 0 0 12 2.625 A 9.3749993 9.3749993 0 0 0 11.953125 2.625 z M 10.511719 8.0039062 C 10.6489 8.0076089 10.771406 8.097891 10.828125 8.25 A 0.53999996 0.53999996 0 0 1 10.59375 8.875 L 9.6933594 9.3828125 L 10.59375 9.890625 A 0.46999996 0.46999996 0 0 1 10.789062 10.476562 C 10.702814 10.696562 10.48625 10.750312 10.28125 10.632812 L 8.875 9.8515625 L 7.4296875 10.632812 C 7.2234379 10.747812 7.0043747 10.699062 6.921875 10.476562 A 0.53999996 0.53999996 0 0 1 7.15625 9.8515625 L 8.015625 9.34375 L 7.15625 8.875 C 6.9500005 8.7575002 6.8368752 8.4699996 6.921875 8.25 A 0.37874997 0.37874997 0 0 1 7.3125 8.015625 A 0.33749997 0.33749997 0 0 1 7.46875 8.0546875 L 8.875 8.875 L 10.320312 8.0546875 C 10.384766 8.01875 10.449364 8.0022233 10.511719 8.0039062 z M 16.761719 8.0039062 C 16.8989 8.0076089 17.021406 8.097891 17.078125 8.25 A 0.53999996 0.53999996 0 0 1 16.84375 8.875 L 15.945312 9.3828125 L 16.84375 9.890625 C 17.04875 10.008125 17.163125 10.255314 17.078125 10.476562 C 16.993125 10.696562 16.73625 10.750312 16.53125 10.632812 L 15.125 9.8125 L 13.679688 10.632812 C 13.472188 10.747812 13.255625 10.699062 13.171875 10.476562 A 0.53999996 0.53999996 0 0 1 13.40625 9.8515625 L 14.304688 9.34375 L 13.404297 8.8359375 C 13.200547 8.7184377 13.086875 8.4692965 13.171875 8.2480469 A 0.37874997 0.37874997 0 0 1 13.5625 8.015625 A 0.33749997 0.33749997 0 0 1 13.71875 8.0546875 L 15.125 8.875 L 16.570312 8.0546875 C 16.634766 8.01875 16.699364 8.0022233 16.761719 8.0039062 z M 9.2128906 14.03125 A 3.0937498 3.0937498 0 0 1 10.875 14.634766 C 11.268749 14.882264 11.339627 14.944688 12 15.023438 C 12.18 15.086436 12.682875 14.976764 13.125 14.634766 C 13.44 14.405266 13.755844 14.303719 14.074219 14.214844 C 15.54684 13.800845 16.970252 14.705346 17.625 15.621094 L 17.625 16.183594 C 17.050127 15.861844 16.432498 15.511686 15.796875 15.304688 L 16.324219 16.359375 C 16.693217 17.087248 16.473281 17.933814 15.832031 18.257812 C 15.190783 18.582937 14.372906 18.247411 14.003906 17.519531 L 13.335938 16.21875 C 13.278558 16.105125 13.259719 15.984186 13.230469 15.867188 A 0.66824995 0.66824995 0 0 1 13.125 15.900391 C 12.516377 16.253639 11.369999 16.122014 10.875 15.900391 C 9.8433765 15.408766 9.8520923 15.151406 9.1523438 15.128906 C 8.1927207 15.150276 7.0792486 15.576391 6.375 16.181641 L 6.375 15.619141 C 6.6719994 14.856391 7.6338773 14.140312 8.765625 14.039062 L 8.765625 14.037109 A 3.0937498 3.0937498 0 0 1 9.2128906 14.03125 z " />
</svg>

<svg width="24" height="24" xmlns="http://www.w3.org/2000/svg"><path style="fill:gray;fill-opacity:1;stroke:none;stroke-width:.75;stroke-linecap:square;stroke-linejoin:round;stroke-opacity:1" d="M11.953 2.625A9.375 9.375 0 0 0 2.625 12 9.375 9.375 0 0 0 12 21.375 9.375 9.375 0 0 0 21.375 12 9.375 9.375 0 0 0 12 2.625a9.375 9.375 0 0 0-.047 0zm-1.441 5.379c.137.004.26.094.316.246a.54.54 0 0 1-.234.625l-.9.508.9.508a.47.47 0 0 1 .195.586c-.086.22-.303.273-.508.156l-1.406-.781-1.445.78c-.207.116-.426.067-.508-.155a.54.54 0 0 1 .234-.625l.86-.508-.86-.469c-.206-.117-.32-.405-.234-.625a.379.379 0 0 1 .39-.234.337.337 0 0 1 .157.039l1.406.82 1.445-.82a.37.37 0 0 1 .192-.051zm6.25 0c.137.004.26.094.316.246a.54.54 0 0 1-.234.625l-.899.508.899.508c.205.117.32.364.234.586-.085.22-.342.273-.547.156l-1.406-.82-1.445.82c-.208.115-.424.066-.508-.156a.54.54 0 0 1 .234-.625l.899-.508-.9-.508c-.204-.118-.318-.367-.233-.588a.379.379 0 0 1 .39-.232.337.337 0 0 1 .157.039l1.406.82 1.445-.82a.37.37 0 0 1 .192-.051zm-7.55 6.027a3.094 3.094 0 0 1 1.663.604c.394.247.465.31 1.125.388.18.063.683-.046 1.125-.388.315-.23.63-.331.95-.42 1.472-.414 2.895.49 3.55 1.406v.563c-.575-.322-1.193-.672-1.828-.88l.527 1.055c.37.728.15 1.575-.492 1.899-.641.325-1.46-.01-1.828-.738l-.668-1.301c-.057-.114-.076-.235-.106-.352a.668.668 0 0 1-.105.033c-.609.354-1.755.222-2.25 0-1.032-.491-1.023-.749-1.723-.771-.96.021-2.073.447-2.777 1.053v-.563c.297-.763 1.259-1.479 2.39-1.58v-.002a3.094 3.094 0 0 1 .448-.006z"/></svg>
